styles/3/Numix/22/places/default-folder-documents.svg

<?xml version="1.0" encoding="UTF-8" standalone="no"?>
<svg
   xmlns:dc="http://purl.org/dc/elements/1.1/"
   xmlns:cc="http://creativecommons.org/ns#"
   xmlns:rdf="http://www.w3.org/1999/02/22-rdf-syntax-ns#"
   xmlns:svg="http://www.w3.org/2000/svg"
   xmlns="http://www.w3.org/2000/svg"
   xmlns:sodipodi="http://sodipodi.sourceforge.net/DTD/sodipodi-0.dtd"
   xmlns:inkscape="http://www.inkscape.org/namespaces/inkscape"
   width="22"
   height="22"
   viewBox="0 0 22 22"
   id="svg2"
   version="1.1"
   inkscape:version="0.91 r"
   sodipodi:docname="default-folder-documents.svg">
  <metadata
     id="metadata16">
    <rdf:RDF>
      <cc:Work
         rdf:about="">
        <dc:format>image/svg+xml</dc:format>
        <dc:type
           rdf:resource="http://purl.org/dc/dcmitype/StillImage" />
      </cc:Work>
    </rdf:RDF>
  </metadata>
  <defs
     id="defs14" />
  <sodipodi:namedview
     pagecolor="#ffffff"
     bordercolor="#666666"
     borderopacity="1"
     objecttolerance="10"
     gridtolerance="10"
     guidetolerance="10"
     inkscape:pageopacity="0"
     inkscape:pageshadow="2"
     inkscape:window-width="1280"
     inkscape:window-height="998"
     id="namedview12"
     showgrid="true"
     inkscape:zoom="21.454545"
     inkscape:cx="5.3330835"
     inkscape:cy="8.6591"
     inkscape:window-x="0"
     inkscape:window-y="0"
     inkscape:window-maximized="1"
     inkscape:current-layer="svg2">
    <inkscape:grid
       type="xygrid"
       id="grid3249"
       empspacing="5"
       visible="true"
       enabled="true"
       snapvisiblegridlinesonly="true" />
  </sodipodi:namedview>
  <rect
     style="fill:#ea9036;fill-opacity:1;stroke:none"
     id="rect3757"
     width="20"
     height="5"
     x="0.99999905"
     y="2.9999826" />
  <path
     style="fill:#ea9036;fill-opacity:1;stroke:none"
     d="m 3.9999992,4 c 0,-1 0,-2 0.909091,-2 L 8.090909,2 c 0.90909,0 0.90909,1 0.90909,2 z"
     id="path3759"
     inkscape:connector-curvature="0"
     sodipodi:nodetypes="ccccc" />
  <path
     style="fill:#95989f;fill-opacity:1;stroke:none"
     d="m 2,4 17.999998,0 0,4 L 2,8 z"
     id="path3765"
     inkscape:connector-curvature="0" />
  <rect
     y="3.9999828"
     x="4.999999"
     height="6"
     width="14"
     id="rect3763"
     style="fill:#d8d8da;fill-opacity:1;stroke:none" />
  <rect
     style="fill:#f9f9f9;fill-opacity:1;stroke:none"
     id="rect3761"
     width="14"
     height="3.0000174"
     x="3"
     y="4.9999828" />
  <path
     style="fill:#f2bb64;fill-opacity:1;stroke:none"
     d="m 0,6 21.999999,0 -1,14 -19.9999994,0 z"
     id="path2987"
     inkscape:connector-curvature="0"
     sodipodi:nodetypes="ccccc" />
  <path
     style="opacity:1.0;fill:#b58c4b;fill-opacity:1;stroke:none"
     d="M 8 8 C 7.446 8 7 8.446 7 9 L 7 17 C 7 17.554 7.446 18 8 18 L 14 18 C 14.554 18 15 17.554 15 17 L 15 9 C 15 8.446 14.554 8 14 8 L 8 8 z M 9 9 L 13 9 L 13 10 L 14 10 L 14 16 C 14 16.554 13.554 17 13 17 L 9 17 C 8.446 17 8 16.554 8 16 L 8 10 C 8 9.446 8.446 9 9 9 z M 9.25 11 C 9.1115 11 9 11.1115 9 11.25 L 9 11.75 C 9 11.8885 9.1115 12 9.25 12 L 12.75 12 C 12.8885 12 13 11.8885 13 11.75 L 13 11.25 C 13 11.1115 12.8885 11 12.75 11 L 9.25 11 z M 9.25 13 C 9.1115 13 9 13.1115 9 13.25 L 9 13.75 C 9 13.8885 9.1115 14 9.25 14 L 12.75 14 C 12.8885 14 13 13.8885 13 13.75 L 13 13.25 C 13 13.1115 12.8885 13 12.75 13 L 9.25 13 z M 9.25 15 C 9.1115 15 9 15.1115 9 15.25 L 9 15.75 C 9 15.8885 9.1115 16 9.25 16 L 12.75 16 C 12.8885 16 13 15.8885 13 15.75 L 13 15.25 C 13 15.1115 12.8885 15 12.75 15 L 9.25 15 z "
     id="rect3767" />
</svg>

<svg xmlns="http://www.w3.org/2000/svg" viewBox="0 0 22 22">
 <rect width="20" height="5" x="1" y="3" style="fill:#ea9036;fill-opacity:1;stroke:none"/>
 <path d="m 4 4 c 0 -1 0 -2 0.909 -2 l 3.182 0 c 0.909 0 0.909 1 0.909 2 z" style="fill:#ea9036;fill-opacity:1;stroke:none"/>
 <path d="m 2 4 18 0 0 4 l -18 0 z" style="fill:#95989f;fill-opacity:1;stroke:none"/>
 <rect y="4" x="5" height="6" width="14" style="fill:#d8d8da;fill-opacity:1;stroke:none"/>
 <rect width="14" height="3" x="3" y="5" style="fill:#f9f9f9;fill-opacity:1;stroke:none"/>
 <path d="m 0 6 22 0 -1 14 -20 0 z" style="fill:#f2bb64;fill-opacity:1;stroke:none"/>
 <path d="m 8 8 c -0.554 0 -1 0.446 -1 1 l 0 8 c 0 0.554 0.446 1 1 1 l 6 0 c 0.554 0 1 -0.446 1 -1 l 0 -8 c 0 -0.554 -0.446 -1 -1 -1 l -6 0 z m 1 1 l 4 0 l 0 1 l 1 0 l 0 6 c 0 0.554 -0.446 1 -1 1 l -4 0 c -0.554 0 -1 -0.446 -1 -1 l 0 -6 c 0 -0.554 0.446 -1 1 -1 z m 0.25 2 c -0.139 0 -0.25 0.111 -0.25 0.25 l 0 0.5 c 0 0.139 0.111 0.25 0.25 0.25 l 3.5 0 c 0.139 0 0.25 -0.111 0.25 -0.25 l 0 -0.5 c 0 -0.139 -0.111 -0.25 -0.25 -0.25 l -3.5 0 z m 0 2 c -0.139 0 -0.25 0.111 -0.25 0.25 l 0 0.5 c 0 0.139 0.111 0.25 0.25 0.25 l 3.5 0 c 0.139 0 0.25 -0.111 0.25 -0.25 l 0 -0.5 c 0 -0.139 -0.111 -0.25 -0.25 -0.25 l -3.5 0 z m 0 2 c -0.139 0 -0.25 0.111 -0.25 0.25 l 0 0.5 c 0 0.139 0.111 0.25 0.25 0.25 l 3.5 0 c 0.139 0 0.25 -0.111 0.25 -0.25 l 0 -0.5 c 0 -0.139 -0.111 -0.25 -0.25 -0.25 l -3.5 0 z" style="fill:#b58c4b;opacity:1;fill-opacity:1;stroke:none"/>
</svg>
